X: 1
T:Reay Mackay
M:6/8
L:1/8
Q:80
C:Glenna Mackay
S:Jig
K:HP
|: {g}A{d}B{e}Ae{g}A{d}B|
{g}ege{gde}dBd|
{g}G{d}B{e}Gd{e}G{d}B|  !
e{g}de{g}B{d}G{e}G|
{g}A{d}B{e}Ae{g}A{d}B|
{g}ege{gde}dBd|  !
{g}((3efg)e{gde}dBd|
{gef}edB{G}A2:| |:
{d}B|  !
{g}Aa{g}a{g}a2g|
{a}ea{g}a{g}aed|
{g}ege{gde}dBd|  !
{gef}edB{gde}dB{d}G|
{g}Aa{g}a{g}a2g|
{a}ea{g}a{g}aed|  !
{g}((3efg)e{gde}dBd|
{gef}edB{G}A2:| |:
e|  !
{g}A{d}B{e}Ag{a}e{A}e|
d{g}Bd{gef}edB|
{g}G{d}B{e}Gd{e}G{d}B|  !
{gde}dBA{g}BAG|
{g}A{d}B{e}Ag{a}e{A}e|
d{g}Bd{gef}e2d|  !
{g}((3efg)e{gde}dBd|
{gef}edB{G}A2:| |:
B|  !
Aagag{a}e|
{a}gag{a}edB|
{g}G{d}B{e}Gd{e}G{d}B|  !
e{g}de{g}B{d}G{e}G|1
Aagag{a}e|
{a}gag{a}edB|  !
{g}((3efg)e{gde}dBd|
{gef}edB{G}A2:|
